images/unidentified-delivery.svg

<svg height="20" width="20" xmlns="http://www.w3.org/2000/svg">
  <path d="M9.5 13.5V15H1a1 1 0 01-1-1V6.5a1 1 0 011-1h8.5v4h-8V11h8v1h-8v1.5zM1.5 7v1.5h6V7zm9 7V3a1 1 0 011-1H19a1 1 0 011 1v2.486zm2.5 0h1v1h-1zm3 0h1v1h-1zm3 0h1a1 1 0 01-1 1zm0-3h1v1h-1zm0-3h1v1h-1z" fill-rule="evenodd"/>
</svg>

<?xml version="1.0" encoding="UTF-8"?>
<svg width="20px" height="20px" viewBox="0 0 20 20" version="1.1" xmlns="http://www.w3.org/2000/svg" xmlns:xlink="http://www.w3.org/1999/xlink">
    <!-- Generator: Sketch 52.2 (67145) - http://www.bohemiancoding.com/sketch -->
    <title>Secret Sender/secret-sender-20</title>
    <desc>Created with Sketch.</desc>
    <g id="Secret-Sender/secret-sender-20" stroke="none" stroke-width="1" fill="none" fill-rule="evenodd">
        <path d="M9.5,13.5 L9.5,15 L1,15 C0.44771525,15 -4.05829902e-13,14.5522847 -4.05897538e-13,14 L-4.05897538e-13,6.5 C-4.05965173e-13,5.94771525 0.44771525,5.5 1,5.5 L9.5,5.5 L9.5,9.5 L1.5,9.5 L1.5,11 L9.5,11 L9.5,12 L1.5,12 L1.5,13.5 L9.5,13.5 Z M1.5,7 L1.5,8.5 L7.5,8.5 L7.5,7 L1.5,7 Z M10.5,13.9993439 L10.5,3 C10.5,2.44771525 10.9477153,2 11.5,2 L19,2 C19.5522847,2 20,2.44771525 20,3 L20,5.48610565 L10.5,13.9993439 Z M13,14 L14,14 L14,15 L13,15 L13,14 Z M16,14 L17,14 L17,15 L16,15 L16,14 Z M19,14 L20,14 C20,14.5522847 19.5522847,15 19,15 L19,14 Z M19,11 L20,11 L20,12 L19,12 L19,11 Z M19,8 L20,8 L20,9 L19,9 L19,8 Z" id="Combined-Shape" fill="#000000"></path>
    </g>
</svg>
